X:1
T:Blessings
T:Blessings
%%score 1 { ( 2 4 ) | ( 3 5 ) }
L:1/8
Q:1/2=56
M:2/2
K:C
V:1 alto nm="Viola" snm="Vla."
V:2 treble nm="Piano" snm="Pno."
V:4 treble 
V:3 bass 
V:5 bass 
V:1
 z8 | z8 | z8 | z8 | z8 | z8 | z8 | z8 | z2!mp! (CD- D2) (CD- | D)E- E4 z2 | z2 (CD- D2) (B,G,- | %11
 G,6) z2 | z2 C2 D2 (EF- | F2) E2 (DC) z C | D2 D(D- D2 C)C- | C6 z2 | z2 (CD- D2) (CD- | %17
 D)E- E4 z2 | z vC C2 D2 (B,G,- | G,6) z2 | CC- C2 D2 (EF- | F2) E2 (D C2) uC | D2 D2 E2 (FD- | %23
 D4) z2 (CG- | G6) (CG- | G6) E2 | D2 (EF- F2 E)E- | E4 z2 uC2 | F2 F(F- F2 G)(G- | G3 C) (C2 D2) | %30
 (E2 F)D- D4 | z2 z uE (EFG)G- | G G2 G- G c2 c- | c G2 z (EFG)G- | G2 GG- G d2 B- | %35
 B2 z2 (GAB)[Ec]- | [Ec]2 [Ec]([Ec]- [Ec]2 [EB])[EB]- | [EB]2 (AG- G2 E2) | (A2 G)(G- G E2) C- | %39
 C8 | z4 (F c2) c- | c4 E2 (DC) | C4 z2 (DE) | F2 (ED- D2 C)C- | C8 | z8 | z8 | z8 || %48
[Q:1/2=60]"^Slightly Faster" z2!mf! (CD- D2) (CD- | D)E- E4 z2 | z2 (CD- D2) (B,G,- | G,6) z2 | %52
 z uC C2 D2 (EF- | F2) E2 (DC) C2 | D2 D2 (D2 C)C- | C6 z2 | z2 (CD- D2) (CD- | D)E- E4 z2 | %58
 z2 (C2 D2) [B,G][G,G]- | [G,G]6 z2 | z2 vCC D2 (EF- | F2) E2 (DC) C2 | D2 (DE- E2) (FD- | %63
 D4) z2 (CG- | G6) (CG- | G6) E2 | D2 (EF- F2 E)E- | E4 z2 uC2 | [CF]2 [CF][CF]- [CF]2 (EG- | %69
 G4) A2 (EG- | G8) | z2 z uE (EFG)G- | G G2 G- G c2 c- | c G2 z (EFG)G- | G2 GG- G d2 B- | %75
 B2 z2 (GAB)[Ec]- | [Ec]2 [Ec]([Ec]- [Ec]2 [EB])[EB]- | [EB]2 (AG- G2 E2) | (A2 G)(G- G E2) C- | %79
 C8 | z4 (F, C2) C- | C4 E,2 (D,C,) | C,4 z2 (D,E,) | F,2 (E,D,- D,2 C,)C,- | C,8- | C,6 z2 | %86
 z2!f! G2 B2 cc- | cG- G6 | z2 G,2 B,2 CC- | C2 (B,A,- A,2) G,2 | z2 (GB- B2) cc- | c2 B2 G2 G2 | %92
 (A B2) c- c2 z2 | (A B2) (c- c2 B2) | c8 | (B2 AG- G4) | z8 | z2 GG c2 (BA) | (A4 B4) | c8- | c8 | %101
 z8 | z2 z!ff! uF (F_G_A)A- |[K:Db] A A2 A- A d2 d- | d A2 z (FGA)A- | A2 AA- A e2 c- | %106
 c2 z2 (ABc)[Fd]- | [Fd]2 [Fd]([Fd]- [Fd]2 [Fc])[Fc]- | [Fc]2 (BA- A2 F2) | (B2 A)(A- A F2) D- | %110
 D2 z2!mp! (vF,G,A,)A,- | A,2 A,A,- A, D2 D- | DA,- A,2 z2 (vF,G,) | A,2 A,A,- A, E2 C- | %114
 C2 z2 (A,B,C)D- | D2 D(D- D2 C)C- | C2 (B,A,- A,2 F,2) | B,2 A,2 (A,2 F,)D,- | D,8 | z8 | z8 | %121
 z2 (DE- E2) (FG- | G2) F2 (E2 D)D- | D4 z2 (EF) | (G2 F)(E- E2 D)D- | D8- | D8 | z8 | z8 | z8 | %130
 z4!p! D,4- | D,8 |] %132
V:2
!mp! [FGc]4 [GAd]4 | [DGB]8 | z2 CD- D2 B,G,- | G,8 | z2 c2 d2 ef- | f e2 c- c4 | [FGc]8 | %7
 !arpeggio![cfgc']8 | [Ac]2 F2 [Bd]2 G2 | [ce]2 A2 a4 | [Ac]2 F2 [Bd]2 G2 | g4 B4 | [CA]4 [DB]4 | %13
 [Ec]8 | [Fcd]8 | [Gc]2 F2 [Gc]4 | [A,C]2 F,2 [B,D]2 G,2 | [CE]2 A,2 [CA]4 | [CA]4 [Gd]4 | %19
 e4 B2 G2 | [CA]4 [DB]2 [Ec][Fd]- | [Fd]2 [Ec]2 A4 | [Gd]2 D2 [Gd]2 D2 | [Gd]2 D2 [Gd]4 | %24
 [cg]2 G2 [cg]4 | [cg]2 G2 [cg]4 | [dg]2 G2 [dg]4 | [Ece]4 A4 | [A,CF]2 F,2 [A,CF]2 G,2 | %29
 [CDG]2 G,2 [CDG]2 G,2 | [CE]2 G,2 [CD]2 G,2 | [B,D]4 EFG[CDG]- | [CDG]4 [CDG]4 | [CDG]4 [CDG]4 | %34
 [B,DG]4 [B,DG]4 | [B,DG]4 [B,DG]4 | [Ec]2 C2 [Ec]2 C2 | [EB]2 B,2 [EB]2 B,2 | %38
 [CA]2 A,2 [CG]2 A,2 | [CG]2 A,2 [CG]4 | F3 E [Fc]4 | [Gc]2 C2 [EG]4 | z4 c4 | [G,CF]8 | %44
 [FGc]4 [GAd]4 | [DGB]8 | z2 CD- D2 B,G, | G4- GEGB || [CA]4 [DB]4 | [Ec]4 [Ae]2 c2 | %50
 [Cc]4 [Dd]2 BG- | G4 g2 Bc/B/ | A4 [DB]2 [Ec][Fd]- | [Fd]2 [Ec]6 | [_Bdf]4 [Bdf]2 [Bcf][Acf]- | %55
 [Acf]4 [Fc]4 | [A,C]2 F,2 [B,D]2 G,2 | [CE]2 A,2 [CA]4 | [A,C]2 F,2 [B,D]2 G,2 | %59
 [B,G]4- [B,G]EGB | [CA]4 [DB]2 [Ec][Fd]- | [Fd]2 [Ec]2 A4 | [Gd]2 D2 [Gd]2 D2 | [Gd]2 D2 [Gd]4 | %64
 [cg]2 G2 [cg]2 G2 | [cg]2 G2 [cg]2 G2 | [dg]2 G2 [dg]2 G2 | [ce]4 [Ac]4 | %68
 [A,CF]2 F,2 [A,CF]2 G,2 | [CDG]2 G,2 [CDG]2 G,2 | [A,CF]2 F,2 [A,CF]2 G,2 | %71
 [B,DG]2 G,2 EFG[CDG]- | [CDG]2 G,2 [CDG]2 G,2 | [CDG]2 G,2 [CDG]2 G,2 | [B,DG]2 G,2 [B,DG]2 G,2 | %75
 [DB]2 B,2 [DG]2 B,2 | [Ec]2 C2 [Ec]2 C2 | [EB]2 B,2 [EB]2 B,2 | [CA]2 A,2 [CG]2 A,2 | %79
 [CG]2 A,2 GCDE | [CF]4 [CF]4 | [Gc]2 C2 [Gc]2 C2 | [FGc]2 C2 [FGc]2 DE | F2 ED- D2 C2 | %84
 [G,CF]2 G,2 [G,CF]2 G,2 | [G,CE]2 G,2 [DB]2 [Ec]2 |!f! [FGc]2 [CFG]2 [FGc]2 [CFG]2 | %87
 [Gc]2 [CG]2 [Gc]2 [CG]2 | [FGc]2 C2 [FGc]2 C2 | [DGc]2 [DB][DA]- [DA]2 [DG]2 | %90
 [CFGc]2 [CFGc]2 [CFGc]2 [CFGc]2 | [DGc]2 [DGc]2 [DGc]2 [DGc]2 | [FA] [GB]2 [Ac]- [Ac]4 | %93
 [FA] [GB]2 [Ac]- [Ac]2 [GB]2 | c4 c4 | [DB]4- [DB]DGB | A2 cd- d B2 G- | G4 c2 B2 | ACFA BDGB | %99
 [FGc]2 C2 [FGc]2 C2 | [ff']2 [ee']2 [dd']2 [cc']2 | [_d_g_b]4 [_e_ac']4 | %102
 [_D_G_B_d]2 [_E_e]2 [Ff][G_g][_A_a][Adfa]- |[K:Db]!ff! [Adfa]8 | z4 fede- | e8 | e2 E2 edcd- | %107
 d2 D2 [Fd]2 D2 | [Fc]2 C2 [Fc]2 C2 | [DB]2 B,2 [DA]2 B,2 |!>(! [DA]2 B,2 [DA]4!>)! | %111
!mp! [ea]4 [ea]4 | [ea]4 [ea]4 | [ea]4 [ea]4 | [ea]4 [ea]4 | z2 cd b4 | z2 cd a4 | [Ad]4 [Ad]4 | %118
 [Ad]4 [Ad]4 | G8 | A8- | A8 | [A,DG]4 [A,DG]4 | [G,D]8 | [Bg]8 | B2 de- e2 de- | ef- f2 [da]4 | %127
 z2 DE- E C2 A,- | A,8 | B,4 D4 | [G,A,D]8- | [G,A,D]8 |] %132
V:3
 [F,C]4 [G,D]4 | [E,C]8 | F,,C,- C,2 G,,D,- D,2 | E,,B,,E,G, B,4 | F,C- C2 G,D- D2 | z2 E6 | %6
 F,,C,F,G,- G,4 | F8 | F,C- C2 G,D- D2 | z2 E6 | F,C- C2 G,D- D2 | z2 B,2 E4 | %12
 F,,C,- C,2 G,,D,- D,2 | A,,E,A,C E4 | _B,8 | F,C- C6 | F,,C,- C,2 G,,D,- D,2 | A,,E,- E,4 E,2 | %18
 F,,C, A,2 G,,D, B,2 | E,,B,,E,G, B,4 | F,,C, A,2 D,4 | A,,E,A,C E4 | [B,,-G,]8 | [B,,B,]8 | E8 | %25
 F8 | [B,,G,]8 | A,,E,A,B, C4 | [D,,A,,]8 | [E,,C,]8 | G,,8- | [G,,,G,,]4 G,,4 | z2 G,4 G,2 | %33
 z2 G,4 G,2 | z2 G,4 G,2 | z2 G,4 G,2 | A,,E,- E,6 | G,,E,- E,6 | [F,,C,]8- | [F,,C,]8 | D,A, C6 | %41
 E,,C, E,6 | [F,,C,]8 | G,,8 | [F,C]4 [G,D]4 | [E,C]8 | F,,C,- C,2 G,,D,- D,2 | E,,B,,E,G, B,4 || %48
 F,,C,A,F, G,,D,B,G, | A,,E,A,C E4 | F,,C,A,F, G,,D, B,2 | E,,B,,E,G, B,4 | F,,C,A,F, G,,D, G,2 | %53
 A,,E,A,C E4 | _B,,,F,,D,F, _B,4 | F,,C,F,G, A,4 | F,,C,- C,2 G,,D,- D,2 | A,,E,- E,2 A,,E,- E,2 | %58
 F,,C,- C,2 G,,D,- D,2 | E,,B,,E,G, B,4 | F,,C,A,F, G,,D, G,2 | A,,E,A,C E4 | [B,,-G,]8 | %63
 [B,,B,]8 | [E,C]8 | [F,C]8 | [G,D]8 | A,,E,A,B, C4 | A,,8 | C,4 C,4 | G,,6 G,,D,, | %71
 [G,,,G,,]4 G,,2 G,,,2 | C,8- | C,3 E, G,4 | B,,8- | B,,3 D, G,4 | A,,E, A,6 | G,,E, G,6 | %78
 [F,,C,]8 | z2 C,2 A,4 | D,,A,,D,F, A,4 | [E,,C,]6 E,,2 | [F,,C,]6 F,,2 | G,,4 [G,,,G,,]4 | %84
 [C,,C,]6- [C,,C,]C,, | [C,,C,]3 C,, [C,,C,]3 C,, | [D,,D,]3 D,, D,3 D,, | [E,,E,]3 E,, E,3 E,, | %88
 [F,,F,]3 F,, F,3 F,, | G,,4 G,,,2 G,,G,,, | [D,,D,]3 D,, D,3 D,, | [E,,E,]3 E,, E,3 E,, | %92
 F,2 F,2 F,2 F,2 | G,,2 G,,2 G,,2 G,,2 | D,,A,, F,2 E,,C, G,2 | G,,D,G,A, B,4 | F,,C, F,2 z2 D,2 | %97
 E,,C,E,G, C4 | [F,,,F,,]4 [G,,,G,,]4 | z2 z F, A,4 | F2 [EF]2 [DF]2 [CF]2 | z2 z _E, [_A,C]2 E,2 | %102
 [_A,,,_A,,]3 A,, A,,2 [A,,,A,,]2 |[K:Db] [D,,,D,,]8 | z4 [D,,D,]2 A,,2 | [C,,C,]8- | %106
 [C,,C,]4 C2 A,2 | B,,F, B,6 | A,,F, A,6 | [G,,D,]8 | z2 D,2 B,4 |[K:treble] z2 A4 A2- | %112
 A2 A4 A2- | A2 A4 A2- | A2 A4 A2 | B,F- F6 | z F- F6 | z2 D4 D2- | D2 D6 |[K:bass] E,,B,, E,6 | %120
 F,,D, F,2 F,2 E,D, | D,6 D,2 | A,,6 A,,2 | [E,,B,,]8 |[K:treble] [A,G]8 | B,G- G2 CA- A2 | z2 A6 | %127
[K:bass] G,,D,- D,2 z2 E,2 | F,,C,F,A, C4 | [G,,D,]8 | [A,,-E,]8 | [D,,A,,]8 |] %132
V:4
 x8 | x8 | A,3 B,- B,4 | x8 | [FA]4 [GB]3 A- | A8 | C3 C- C4 | x8 | x8 | x8 | x8 | G8 | x8 | x8 | %14
 x8 | x8 | x8 | x8 | x8 | G4 E4 | x8 | x8 | x8 | x8 | x8 | x8 | x8 | x8 | x8 | x8 | x8 | x8 | x8 | %33
 x8 | x8 | x8 | x8 | x8 | x8 | x8 | x8 | x8 | [F,B,C]8 | x8 | x8 | x8 | A,3 B,- B,3 G,- | G,8 || %48
 x8 | x8 | x8 | x8 | x8 | x8 | x8 | x8 | x8 | x8 | x8 | x8 | x8 | x8 | x8 | x8 | x8 | x8 | x8 | %67
 x8 | x8 | x8 | x8 | x8 | x8 | x8 | x8 | x8 | x8 | x8 | x8 | x8 | x8 | x8 | x8 | %83
 [G,C]3 [G,C]- [G,C]4 | x8 | x8 | x8 | x8 | x8 | x8 | x8 | x8 | C3 F- F4 | C3 F- F2 D2 | %94
 F2 CF G2 CG | x8 | C3 G- G3 [CD]- | [CD]4 [EG]2 [DG]2 | x8 | x8 | x8 | x8 | x8 |[K:Db] x8 | %104
 x4 A2 A[EA]- | [EA]8 | A2 E2 [EA]3 F- | F2 D2 F2 D2 | x8 | x8 | x8 | x8 | x8 | x8 | x8 | x8 | x8 | %117
 x8 | x8 | B,3 G, G, D2 D- | D3 A, D4 | [A,D]4 [A,D]4 | x8 | x8 | x8 | x8 | x8 | B,3 A,- A,4 | x8 | %129
 A,8 | x8 | x8 |] %132
V:5
 x8 | x8 | F,,4 G,,4 | E,,8 | F,4 G,4 | A,8 | F,,8- | F,,8 | F,4 G,4 | A,8 | F,4 G,4 | E,8 | %12
 F,,4 G,,4 | A,,8 | x8 | F,8 | F,,4 G,,4 | A,,8 | F,,4 G,,4 | E,,8 | F,,4 G,,4 | A,,8 | x8 | x8 | %24
 x8 | x8 | x8 | A,,8 | x8 | x8 | x8 | x8 | C,8 | C,8 | B,,8 | B,,8 | A,,8 | G,,8 | x8 | x8 | D,8 | %41
 E,,8 | x8 | x8 | x8 | x8 | F,,4 G,,4 | E,,8 || F,,4 G,,4 | A,,8 | F,,4 G,,4 | E,,8 | F,,4 G,,4 | %53
 A,,8 | _B,,,8 | F,,8 | F,,4 G,,4 | A,,4 A,,4 | F,,4 G,,4 | E,,8 | F,,4 G,,4 | A,,8 | x8 | x8 | %64
 x8 | x8 | x8 | A,,8 | D,,6 D,,2 | E,,4 F,,3 F,, | x8 | x8 | C,,8- | C,,8 | B,,,8- | B,,,8 | A,,8 | %77
 G,,8 | x8 | F,,8 | D,,8 | x8 | x8 | x8 | x8 | x8 | x8 | x8 | x8 | x8 | x8 | x8 | F,,8 | G,,,8 | %94
 D,,4 E,,4 | G,,8 | F,,4 G,,4 | E,,8 | x8 | [A,,,A,,]8- | [A,,,A,,]8 | [_A,,,_A,,]8 | x8 | %103
[K:Db] x8 | x8 | x8 | x8 | B,,8 | A,,8 | x8 | G,,8 |[K:treble] D8- | D8 | C8- | C8 | B,8 | A,8 | %117
 G,8- | G,8 |[K:bass] E,,8 | F,,8 | G,,8 | x8 | x8 |[K:treble] x8 | B,4 C4 | D8 | %127
[K:bass] G,,4 A,,4 | F,,8 | x8 | x8 | x8 |] %132

